local/share/icons/dracula-icons-main/scalable/apps/com.github.timecraft.js-test.svg

<?xml version="1.0" encoding="UTF-8"?>
<svg xmlns="http://www.w3.org/2000/svg" xmlns:xlink="http://www.w3.org/1999/xlink" width="64" height="64" viewBox="0 0 64 64">
<path fill-rule="nonzero" fill="rgb(20%, 20%, 20%)" fill-opacity="1" d="M 32 5 C 46.910156 5 59 17.089844 59 32 C 59 46.910156 46.910156 59 32 59 C 17.089844 59 5 46.910156 5 32 C 5 17.089844 17.089844 5 32 5 Z M 32 5 "/>
<path fill-rule="nonzero" fill="rgb(100%, 59.215686%, 0%)" fill-opacity="1" d="M 24.667969 19.453125 L 24.667969 36.058594 C 24.667969 38.609375 23.695312 39.261719 22 39.261719 C 20.230469 39.261719 19.003906 38.167969 18.1875 36.75 L 14 39.261719 C 15.214844 41.804688 18.1875 44.542969 22.3125 44.542969 C 26.875 44.542969 30 42.140625 30 36.863281 L 30 19.453125 Z M 41.273438 19.453125 C 36.730469 19.453125 33.820312 22.332031 33.820312 26.113281 C 33.820312 30.214844 36.261719 32.15625 39.933594 33.699219 L 41.203125 34.246094 C 43.523438 35.25 44.667969 35.863281 44.667969 37.589844 C 44.667969 39.03125 43.5625 40.074219 41.453125 40.074219 C 38.941406 40.074219 37.753906 38.382812 36.667969 36.621094 L 32.667969 39.261719 C 34.160156 42.1875 36.84375 44.542969 41.570312 44.542969 C 46.402344 44.542969 50 42.058594 50 37.523438 C 50 33.316406 47.5625 31.441406 43.238281 29.605469 L 41.964844 29.070312 C 39.785156 28.128906 38.835938 27.519531 38.835938 26.011719 C 38.835938 24.785156 39.785156 23.851562 41.273438 23.851562 C 42.734375 23.851562 43.671875 24.464844 44.542969 26.011719 L 48.503906 23.496094 C 46.835938 20.570312 44.503906 19.453125 41.273438 19.453125 Z M 41.273438 19.453125 "/>
</svg>

<svg id="Sublime-Text" width="64" height="64" enable-background="new 0 0 1024 1024" image-rendering="optimizeSpeed" version="1.1" viewBox="0 0 64 64" xmlns="http://www.w3.org/2000/svg">
 <rect x="5" y="5" width="54" height="54" rx="27" ry="27" fill="#333333" stroke-width="3.6445"/>
 <path d="m24.667 19.454v16.606c0 2.5481-0.97243 3.2027-2.6667 3.2027-1.7697 0-2.9979-1.0936-3.8114-2.5131l-4.1885 2.5131c1.2148 2.5428 4.1885 5.2821 8.3125 5.2821 4.563 0 7.6875-2.4026 7.6875-7.6821v-17.409zm16.606 0c-4.5441 0-7.4532 2.8795-7.4532 6.6586 0 4.1024 2.4404 6.0417 6.1145 7.5878l1.2687 0.5441c2.3192 1.0047 3.464 1.6189 3.464 3.3454 0 1.4411-1.1043 2.4835-3.2134 2.4835-2.5104 0-3.6983-1.6889-4.7865-3.4532l-4 2.6424c1.4949 2.9252 4.1778 5.2821 8.9023 5.2821 4.8323 0 8.4309-2.4862 8.4309-7.0196 0-4.2101-2.4377-6.0821-6.7636-7.9192l-1.2714-0.53602c-2.1819-0.94003-3.1299-1.5489-3.1299-3.0599 0-1.2229 0.94817-2.1603 2.4377-2.1603 1.4626 0 2.4 0.61414 3.27 2.1603l3.9623-2.5158c-1.6701-2.9252-4-4.0404-7.2323-4.0404z" fill="#ff9700" stroke-width=".85714"/>
</svg>
